X:1
T:James Gibb editions
T:Qué se puede desear - Guerrero
T:#
%%score [ 1 2 3 ]
L:1/8
Q:1/4=120
M:3/4
K:F
V:1 treble nm="Soprano I" snm="S I"
V:2 treble nm="Soprano II" snm="S II"
V:3 treble-8 nm="Alto" snm="A"
V:1
"^Francisco Guerrero\n(1528-99)" c2 B2"^¿Qué se puede desear?" A2- | AF A2 G2 | F4 c2- | cG A2 B2 | %4
w: ¿Qué se pue\-|* de de- se-|ar, qué|* se pue- de|
w: ¿Qué más pue\-|* de de- se-|ar, qué|* más pue- de|
 (AF G2) G2 | F2 z c dB | c2 Ac B2 | A4 d2 | d3 d c2 | B4 A2 | B4 F2 | G2 AA DG | E2 D2 B2 | %13
w: de\- * * se-|ar, que no se|ha- lle~~en el sue-|lo, pues|an- da Dios|a ro-|gar con|pan que sus- ten- ta~~el|cie- lo, con|
w: de\- * * se-|ar el hom- bre~~hu-|ma- no~~en el sue-|lo, *||||||
 c2 dd Gc | A2 G4 | A2 B2 cc | FB A4 | F4 F2 | B3 B G2 | F2 c4 | d4 z2 | B2 c2 dd | Gc A2 G2 | %23
w: pan que sus- ten- ta~~el|cie- lo,|con pan que sus-|ten- ta~~el cie-|lo, pues|an- da Dios|a ro-|gar|con pan que sus-|ten- ta~~el cie- lo,|
w: ||||||||||
 z2 D2 E2 | FF DG E2 | FF G2 AA | DF E4 | F6!fine! |] A4 c2 | c3 c B2 | A2 d4 | c2 F2 G2 | %32
w: con pan|que sus- ten- ta~~el cie-|lo, con pan que sus-|ten- ta~~el cie-|lo?|A- quel|pan de pa-|ra- i-|so, de án-|
w: |||||||||
 AA c2 =B2 | c2 c2 z G | AB c2 BG | A2 GC FF | G2 GE F2 | E2 G2 G2 | (AB cB AG | FE D2) E2 | %40
w: ge- les a- do-|ra- do, el|que~~en el cie- lo lo~~ha|da- do, el que~~en el|cie- lo lo~~ha da-|do, en el|sue\- * * * * *|* * * lo|
w: ||||||||
 F4 E2 | F4 F2!D.C.! |] %42
w: dar- lo|qui- so.|
w: ||
V:2
 z6 | z2 c2 B2 | A3 F A2 | G2 F4 | F4 E2 | F2 z A BF | G2 FA G2- | G2 ^F2 B2 | B3 B G2 | F2 c4 | %10
w: |¿Qué se|pue- de de-|se- ar,|de- se-|ar, que no se|ha- lle~~en el sue\-|* lo, pues|an- da Dios|a ro-|
w: |¿Qué más|pue- de de-|se- ar,|de- se-|ar el hom- bre~~hu-|ma- no~~en el sue\-|* lo, *|||
 d4 z2 | B2 c2 dd | Gc A2 G2 | z2 D2 E2 | FF DG E2 | FF G2 AA | DF E4 | F4 d2 | d3 d c2 | B4 A2 | %20
w: gar|con pan que sus-|ten- ta~~el cie- lo,|con pan|que sus- ten- ta~~el cie-|lo, con pan que sus-|ten- ta~~el cie-|lo, pues|an- da Dios|a ro-|
w: ||||||||||
 B4 F2 | G2 AA DG | E2 D2 B2 | c2 dd Gc | A2 G4 | A2 B2 cc | FB G4 | F6 |] F4 A2 | A3 G F2 | %30
w: gar con|pan que sus- ten- ta~~el|cie- lo, con|pan que sus- ten- ta~~el|cie- lo,|con pan que sus-|ten- ta~~el cie-|lo?|A- quel|pan de pa-|
w: ||||||||||
 E2 D4 | E2 D2 E2 | FF C2 D2 | E4 E2 | z6 | z2 z G AB | c2 BG A2 | G2 E2 E2 | (FG AG FE | D2) G4 | %40
w: ra- i-|so, de án-|ge- les a- do-|ra- do,||el que~~en el|cie- lo lo~~ha da-|do, en el|sue\- * * * * *|* lo|
w: ||||||||||
 A2 G4 | F4 F2 |] %42
w: dar- lo|qui- so.|
w: ||
V:3
 z6 | z6 | z4 f2 | e2 d3 B | d2 c4 | F2 f2 Bd | c2 FF G2 | d4 B2 | B3 B _e2 | d2 c4 | B6 | z4 B2 | %12
w: ||¿Qué|se pue- de|de- se|ar, que no se|ha- lle~~en el sue-|lo, pues|an- da Dios|a ro-|gar|con|
w: ||¿Qué|más pue- de|de- se-|ar, el hom- bre~~hu-|ma- no~~en el sue-|lo, *|||||
 c2 dd GB | A2 G2 z2 | A2 B2 cc | FA G2 F2 | B2 c3 c | F2 F2 B2 | B3 B _e2 | d2 c4 | B4 z2 | %21
w: pan que sus- ten- ta~~el|cie- lo,|con pan que sus-|ten- ta~~el cie- lo,|sus- ten- ta~~el|cie- lo, pues|an- da Dios|a ro-|gar|
w: |||||||||
 z4 B2 | c2 dd GB | A2 G2 z2 | A2 B2 cc | FA G2 F2 | B2 c3 c | F4 F2 |] F4 f2 | f3 e d2 | c2 B4 | %31
w: con|pan que sus- ten- ta~~el|cie- lo,|con pan que sus-|ten- ta~~el cie- lo,|sus- ten- ta~~el|cie- lo?|A- quel|pan de pa-|ra- i-|
w: ||||||||||
 c2 d2 c2 | FF A2 G2 | c4 c2 | z2 c2 de | f2 ce dd | c2 GG F2 | c6 | z2 F2 F2 | (B3 G c2) | %40
w: so, de án-|ge- les a- do-|ra- do,|el que~~en el|cie- lo, el que~~en el|cie- lo lo~~ha da-|do,|en el|sue\- * *|
w: |||||||||
 A2 B2 c2 | F4 F2 |] %42
w: lo dar- lo|qui- so.|
w: ||

